assets/img/facebook.svg

<?xml version="1.0" encoding="UTF-8"?>
<svg width="14px" height="24px" viewBox="0 0 14 24" version="1.1" xmlns="http://www.w3.org/2000/svg" xmlns:xlink="http://www.w3.org/1999/xlink">
    <!-- Generator: Sketch 39.1 (31720) - http://www.bohemiancoding.com/sketch -->
    <title>Stroke 29</title>
    <desc>Created with Sketch.</desc>
    <defs></defs>
    <g id="Page-1" stroke="none" stroke-width="1" fill="none" fill-rule="evenodd" stroke-linejoin="round">
        <g id="Stroke-29" stroke="#FFFFFF">
            <path d="M12.7676,7.5 L8.4996,7.5 L8.4996,5.595 C8.4996,4.699 9.0936,4.49 9.5116,4.49 L12.4996,4.49 L12.4996,0.548 L8.1706,0.535 C4.2446,0.535 3.4996,3.474 3.4996,5.355 L3.4996,7.5 L0.4996,7.5 L0.4996,11.5 L3.4996,11.5 L3.4996,23.5 L8.4996,23.5 L8.4996,11.5 L12.3506,11.5 L12.7676,7.5 L12.7676,7.5 Z"></path>
        </g>
    </g>
</svg>

<svg width="14" height="24" viewBox="0 0 14 24" xmlns="http://www.w3.org/2000/svg"><title>Stroke 29</title><path d="M12.768 7.5H8.5V5.595c0-.896.594-1.105 1.012-1.105H12.5V.548L8.17.535c-3.925 0-4.67 2.94-4.67 4.82V7.5h-3v4h3v12h5v-12h3.85l.418-4z" stroke="#FFF" fill="none" fill-rule="evenodd" stroke-linejoin="round"/></svg>
